!!!COM: Gabrieli, Andrea
!!!CDT: ~1532///-1585/08/30/
!!!OTL: Bonum est et suaue
!!!OTL2: Sonno diletto e caro
!!!ONM: No. 21
!!!SMS: Musica tolta da i madrigali di Claudio Monteverdi, e d'altri autori, e fatta spirituale
!!!PPR: A. Coppini, ed.
!!!PPP: Milan
!!!PDT: 1607
!!!URL: http://www.jpj.dk/coppini.htm
!!!AIN: contrafacta
**kern	**kern	**kern	**kern	**kern	**kern	**kern
*staff7	*staff6	*staff5	*staff4	*staff3	*staff2	*staff1
*Ivox	*Ivox	*Ivox	*Ivox	*Ivox	*Ivox	*Ivox
!B.C.	!basso	!tenore	!quinto	!alto	!sesto	!canto
*clefF4	*clefF4	*clefGv2	*clefGv2	*clefG2	*clefG2	*clefG2
*k[b-]	*k[b-]	*k[b-]	*k[b-]	*k[b-]	*k[b-]	*k[b-]
*M4/4	*M4/4	*M4/4	*M4/4	*M4/4	*M4/4	*M4/4
*MM120	*MM120	*MM120	*MM120	*MM120	*MM120	*MM120
=1-	=1-	=1-	=1-	=1-	=1-	=1-
[1G	[1G	1r	[1d	1r	[1b-	1r
=2	=2	=2	=2	=2	=2	=2
1G]	1G]	1r	1d]	1g	1b-]	1r
=3	=3	=3	=3	=3	=3	=3
2D\	2D\	1r	2d\	2f#/	2a/	1r
2G\	2G\	.	2d\	2g/	2g/	.
=4	=4	=4	=4	=4	=4	=4
4E-\	4E-\	1r	4e-\	4g/	4b-\	1r
4C/	4C/	.	4e-\	4g/	4cc\	.
2D\	2D\	.	[2d\	[2f#/	2a/	.
=5	=5	=5	=5	=5	=5	=5
1D	1D	2r	2d\]	2f#/]	2a/	2r
.	.	4r	2d\	4f#/	4r	4r
.	.	4d\	.	4fn/	4dd\	4a/
=6	=6	=6	=6	=6	=6	=6
4d\	1r	4d\	1r	4a/	4ff\	4dd\
4d\	.	4d\	.	4f/	4dd\	4a/
4B-\	.	4B-\	.	4f/	4dd\	4b-\
4c\	.	4c\	.	4e/	4cc\	4g/
=7	=7	=7	=7	=7	=7	=7
4d\	1r	4d\	1r	4d/	4a/	4f/
4d\	.	4d\	.	4f/	4dd\	4a/
4c\	.	4c\	.	4e/	4g/	4cc\
4e-\	.	4e-\	.	4g/	4g/	4cc\
=8	=8	=8	=8	=8	=8	=8
2d\	1r	2d\	1d	2f#/	2a/	2dd\
2G\	.	2G/	.	2g/	2bn\	2dd\
=9	=9	=9	=9	=9	=9	=9
[1G	[1G	1r	2G/	1r	[1dd	[1b-
.	.	.	2d\	.	.	.
=10	=10	=10	=10	=10	=10	=10
1G]	1G]	1B-	4B-\	1g	1dd]	2b-\]
.	.	.	4G/	.	.	.
.	.	.	2d\	.	.	2g/
=11	=11	=11	=11	=11	=11	=11
2D\	2D\	2A/	1d	2f#/	2dd\	2r
2G\	2G\	2B-\	.	2g/	2dd\	2g/
=12	=12	=12	=12	=12	=12	=12
4E-\	4E-\	4G/	1r	4g/	4ee-\	4b-\
4C/	4C/	4G/	.	4g/	4ee-\	4cc\
2D\	2D\	[2d\	.	[2f#/	2dd\	2a/
=13	=13	=13	=13	=13	=13	=13
2.D\	2D\	2d\]	2r	2f#/]	1dd	1a
.	4r	2d\	4r	4f#/	.	.
4D\	4D\	.	4fn\	4a/	.	.
=14	=14	=14	=14	=14	=14	=14
4d\	4d\	2r	4f\	4a/	1r	1r
4A\	4A\	.	4f\	4a/	.	.
4B-\	4B-\	4r	4d\	4f/	.	.
4G\	4G\	4G/	4e\	4g/	.	.
=15	=15	=15	=15	=15	=15	=15
2F\	2F\	4c\	2.f\	2a/	2r	4r
.	.	4A/	.	.	.	4cc\
4B-\	4r	4B-\	.	4r	4r	2dd\
4D\	4D\	4A/	4f\	4f/	4a/	.
=16	=16	=16	=16	=16	=16	=16
4D\	4D\	2F/	4d\	4f/	4dd\	4a/
4D\	4D\	.	4d\	4f/	4a/	2ff\
4BB-/	4BB-/	2G/	4d\	4d/	4b-\	.
4C/	4C/	.	4c\	4e/	4g/	4ee\
=17	=17	=17	=17	=17	=17	=17
2D\	2D\	2d\	1A	4f/	4f/	2dd\
.	.	.	.	4f/	4a/	.
2A\	2A\	2c\	.	4e/	8a/L	2ee\
.	.	.	.	.	8b-/J	.
.	.	.	.	4a/	8cc\L	.
.	.	.	.	.	8a\J	.
=18	=18	=18	=18	=18	=18	=18
2G\	2G\	2B-\	4r	2d/	2b-\	2.gg\
.	.	.	4d\	.	.	.
2G\	2B-\	2G/	4.d\	4g/	4b-\	.
.	.	.	.	4g/	[4dd\	4g/
.	.	.	8e\	.	.	.
=19	=19	=19	=19	=19	=19	=19
1A	1A	2r	4f\	4f/	4dd\]	1a
.	.	.	4a\	4e/	8cc#\L	.
.	.	.	.	.	8bn\J	.
.	.	4r	2A/	2e/	2cc#\	.
.	.	4e\	.	.	.	.
=20	=20	=20	=20	=20	=20	=20
1D	1D	4.f\	1d	4d/	4dd\	2a/
.	.	.	.	4d/	4dd\	.
.	.	8f\	.	.	.	.
.	.	4f\	.	4.a/	4.ff\	2r
.	.	4f\	.	.	.	.
.	.	.	.	8a/	8ff\	.
*clefGv2	*	*	*	*	*	*
=21	=21	=21	=21	=21	=21	=21
2d\	1r	2d\	1r	4a/	4ff\	4r
.	.	.	.	4a/	4ff\	4a/
[2g\	.	[2g\	.	2g/	2dd\	4.b-\
.	.	.	.	.	.	8b-\
=22	=22	=22	=22	=22	=22	=22
2g\]	1r	2g\]	1r	1r	1dd	4b-\
.	.	.	.	.	.	4b-\
[2f\	.	[2f\	.	.	.	[2a/
=23	=23	=23	=23	=23	=23	=23
2f\]	1r	2f\]	2r	1r	2cc\	2a/]
4d\	.	2d\	4r	.	2b-\	2dd\
4G/	.	.	4G/	.	.	.
=24	=24	=24	=24	=24	=24	=24
4.c\	1r	1e-	4.c\	2r	1g	2cc\
8c\	.	.	8c\	.	.	.
4c\	.	.	4c\	4r	.	2g/
4c\	.	.	4c\	4c/	.	.
=25	=25	=25	=25	=25	=25	=25
2B-\	2r	2d\	2B-\	4.f/	1dd	2b-\
.	.	.	.	8f/	.	.
4d\	4r	2r	[2d\	4f/	.	[2a/
*clefF4	*	.	.	*	.	.
4D\	4D\	.	.	4f/	.	.
=26	=26	=26	=26	=26	=26	=26
4.A\	4.A\	4r	4d\]	1e	2r	2a/]
.	.	4A/	2c\	.	.	.
8A\	8A\	.	.	.	.	.
4A\	4A\	2c\	.	.	4r	2r
4A\	4A\	.	4A/	.	4a/	.
=27	=27	=27	=27	=27	=27	=27
2G\	2G\	2r	1B-	2.g/	4.dd\	1r
.	.	.	.	.	8dd\	.
[2G\	[2G\	4r	.	.	4dd\	.
.	.	4G/	.	[4d/	4dd\	.
=28	=28	=28	=28	=28	=28	=28
2G\]	2G\]	4.d\	2G/	4d/]	2b-\	1r
.	.	.	.	4g/	.	.
.	.	8d\	.	.	.	.
[2F\	[2F\	4d\	2r	2a/	2r	.
.	.	4d\	.	.	.	.
=29	=29	=29	=29	=29	=29	=29
2F\]	2F\]	2c\	2r	2a/	1r	2r
2D\	2D\	[2B-\	2d\	2f/	.	[2dd\
=30	=30	=30	=30	=30	=30	=30
[1E-	[1E-	2B-\]	2G/	1g	1r	2dd\]
.	.	[2G/	2G/	.	.	2cc\
=31	=31	=31	=31	=31	=31	=31
1E-]	1E-]	2G/]	2.B-\	2g/	1r	2b-\
.	.	2G/	.	2r	.	[2g/
.	.	.	4c\	.	.	.
=32	=32	=32	=32	=32	=32	=32
1D	1D	1A	2d\	4r	2r	4g/]
.	.	.	.	4d/	.	8f#/L
.	.	.	.	.	.	8e/J
.	.	.	4d\	4a/	4r	2f#/
.	.	.	4d\	4a/	4dd\	.
*clefGv2	*	*	*	*	*	*
=33	=33	=33	=33	=33	=33	=33
4g\	1r	2G/	4g\	2b-\	4dd\	4g/
4g\	.	.	4g\	.	4dd\	4b-\
2f\	.	2r	2f\	2a/	2ff\	4cc\
.	.	.	.	.	.	4cc\
=34	=34	=34	=34	=34	=34	=34
4B-\	1r	1r	4B-\	2.f/	4dd\	2b-\
2d\	.	.	2d\	.	2ff\	.
.	.	.	.	.	.	4a/
4B-\	.	.	4B-\	4b-\	4dd\	[4g/
=35	=35	=35	=35	=35	=35	=35
4c\	1r	1r	4c\	4a/	4ee\	4g/]
4d\	.	.	4d\	4a/	4dd\	4f/
2e-\	.	.	2e-\	[2g/	2cc\	4g/
.	.	.	.	.	.	4a/
=36	=36	=36	=36	=36	=36	=36
1d	1r	1r	1d	2g/]	1dd	2b-\
.	.	.	.	2f#/	.	2a/
=37	=37	=37	=37	=37	=37	=37
2g\	1r	2g\	4r	2b-\	1r	1dd
.	.	.	2g\	.	.	.
2d\	.	2d\	.	2a/	.	.
.	.	.	4f#\	.	.	.
*clefF4	*	*	*	*	*	*
=38	=38	=38	=38	=38	=38	=38
2G\	2G\	4r	2g\	2b-\	1dd	4dd\
.	.	2d\	.	.	.	2gg\
2D\	2D\	.	2a\	2a/	.	.
.	.	4A/	.	.	.	4ff#\
=39	=39	=39	=39	=39	=39	=39
2G\	2G\	2B-\	2r	2d/	4dd\	2r
.	.	.	.	.	2gg\	.
2D\	2D\	2A/	4r	2a/	.	2dd\
.	.	.	[4d\	.	4ff#\	.
=40	=40	=40	=40	=40	=40	=40
2G\	2G\	2G/	4d\]	2d/	4r	2b-\
.	.	.	2B-\	.	2gg\	.
2E-\	2E-\	2g\	.	4e-/	.	2g/
.	.	.	[4G/	4B-/	[4ee-\	.
=41	=41	=41	=41	=41	=41	=41
2C/	2C/	2e-\	4G/]	2.c/	4ee-\]	4.cc\
.	.	.	4.c\	.	2cc\	.
.	.	.	.	.	.	8b-\
4.F\	4.F\	2c\	.	.	.	2a/
.	.	.	8B-\	.	.	.
.	.	.	[4A/	4cc\	[4ff\	.
8E\	8E\	.	.	.	.	.
=42	=42	=42	=42	=42	=42	=42
4D\	4D\	4d\	4A/]	4f/	4ff\]	4a/
4D\	4D\	4d\	4A/	4a/	4ff\	2dd\
2A\	2A\	2e\	2A/	2a/	2ee\	.
.	.	.	.	.	.	4cc\
=43	=43	=43	=43	=43	=43	=43
2D\	1D	4f\	2d\	4a/	1dd	4dd\
.	.	4d\	.	4f#/	.	4a/
4.D\	.	4.d\	2r	4.f#/	.	4a/
.	.	.	.	.	.	4a/
8E\	.	8e\	.	8g/	.	.
=44	=44	=44	=44	=44	=44	=44
4F#\	2r	4f#\	4r	4a/	2r	4dd\
4G\	.	4g\	4G/	4b-\	.	4dd\
4d\	4r	2f#\	4.d\	2a/	4r	[2dd\
4D\	4D\	.	.	.	4a/	.
.	.	.	8e\	.	.	.
=45	=45	=45	=45	=45	=45	=45
4.D\	4.D\	4r	4f#\	4r	4a/	2dd\]
.	.	4d\	4a\	4f#/	4a/	.
8E\	8E\	.	.	.	.	.
4F#\	4F#\	4.d\	[2d\	4a/	4dd\	4r
4G\	4G\	.	.	4b-\	4dd\	4g/
.	.	8e\	.	.	.	.
=46	=46	=46	=46	=46	=46	=46
1D	1D	4f#\	2d\]	4a/	2dd\	4a/
.	.	4g\	.	4d/	.	4b-\
.	.	2f#\	2r	2d/	2r	2a/
=47	=47	=47	=47	=47	=47	=47
2G\	1r	4r	2g\	2b-\	1dd	1r
.	.	2g\	.	.	.	.
2d\	.	.	2d\	2a/	.	.
.	.	4f#\	.	.	.	.
=48	=48	=48	=48	=48	=48	=48
2G\	2G\	2g\	4r	2b-\	4dd\	1dd
.	.	.	2d\	.	2gg\	.
2D\	2D\	2a\	.	2a/	.	.
.	.	.	4A/	.	4ff#\	.
=49	=49	=49	=49	=49	=49	=49
2G\	2G\	2r	2B-\	2d/	2r	4dd\
.	.	.	.	.	.	2gg\
2D\	2D\	4r	2A/	2a/	2dd\	.
.	.	[4d\	.	.	.	4ff#\
=50	=50	=50	=50	=50	=50	=50
2G\	2G\	4d\]	2G/	2d/	2b-\	4r
.	.	2B-\	.	.	.	2gg\
2E-\	2E-\	.	2g\	4e-/	2g/	.
.	.	[4G/	.	4B-/	.	[4ee-\
=51	=51	=51	=51	=51	=51	=51
2C/	2C/	4G/]	2e-\	2.c/	4.cc\	4ee-\]
.	.	4.c\	.	.	.	2cc\
.	.	.	.	.	8b-\	.
4.F\	4.F\	.	2c\	.	2a/	.
.	.	8B-\	.	.	.	.
.	.	[4A/	.	4cc\	.	[4ff\
8E\	8E\	.	.	.	.	.
=52	=52	=52	=52	=52	=52	=52
4D\	4D\	4A/]	4d\	4f/	4a/	4ff\]
4D\	4D\	4A/	4d\	4a/	2dd\	4ff\
2A\	2A\	2A/	2e\	2a/	.	2ee\
.	.	.	.	.	4cc#\	.
=53	=53	=53	=53	=53	=53	=53
2D\	1D	2d\	4f\	4a/	4dd\	1dd
.	.	.	4d\	4f#/	4a/	.
4.D\	.	2r	4.d\	4.f#/	4a/	.
.	.	.	.	.	4a/	.
8E\	.	.	8e\	8g/	.	.
=54	=54	=54	=54	=54	=54	=54
4F#\	2r	4r	4f#\	4a/	4dd\	2r
4G\	.	4G/	4g\	4b-\	4dd\	.
4d\	4r	4.d\	2f#\	2a/	[2dd\	4r
4D\	4D\	.	.	.	.	4a/
.	.	8e\	.	.	.	.
=55	=55	=55	=55	=55	=55	=55
4.D\	4.D\	4f#\	4r	4r	2dd\]	4a/
.	.	4a\	4d\	4f#/	.	4a/
8E\	8E\	.	.	.	.	.
4F#\	4F#\	[2d\	4.d\	4a/	4r	4dd\
4G\	4G\	.	.	4b-\	4g/	4dd\
.	.	.	8e\	.	.	.
=56	=56	=56	=56	=56	=56	=56
1D	1D	2d\]	4f#\	4a/	4a/	1dd
.	.	.	4g\	4d/	4b-\	.
.	.	4r	2f#\	4d/	4a/	.
.	.	4d\	.	4d/	4a/	.
=57	=57	=57	=57	=57	=57	=57
4G\	4r	4G/	4r	4d/	4bn\	4r
4G\	4G\	4G/	4d\	4g/	4b\	4dd\
4C/	4C/	[2c\	4c\	2g/	2cc\	4ee\
4C/	4C/	.	4G/	.	.	4ee\
=58	=58	=58	=58	=58	=58	=58
2F\	2F\	2c\]	4.A/	1r	2a/	2ff\
.	.	.	8B-\	.	.	.
2C/	2C/	2c\	4c\	.	[2g/	2ee\
.	.	.	4G/	.	.	.
=59	=59	=59	=59	=59	=59	=59
1D	1D	1A	1d	1r	2g/]	1dd
.	.	.	.	.	2f#/	.
*clefGv2	*	*	*	*	*	*
=60	=60	=60	=60	=60	=60	=60
1G	1G	2G/	1d	1r	1g	1bn
.	.	2r	.	.	.	.
=61	=61	=61	=61	=61	=61	=61
1g	1r	1g	1r	2r	2r	2r
.	.	.	.	4r	2b-\	2dd\
.	.	.	.	4g/	.	.
=62	=62	=62	=62	=62	=62	=62
4f#\	1r	4f#\	1r	4a/	4a/	4dd\
4g\	.	4g\	.	4b-\	4dd\	4dd\
2e-\	.	2e-\	.	2g/	2cc\	2gg\
=63	=63	=63	=63	=63	=63	=63
1d	1d	2d\	2r	2a/	2dd\	2ff#\
.	.	2r	4r	2f/	2a/	2r
.	.	.	4d\	.	.	.
=64	=64	=64	=64	=64	=64	=64
4c#\	4c#\	1r	4e\	4e/	4a/	1r
4d\	4d\	.	4f\	4a/	4a/	.
2B-\	2B-\	.	2d\	2g/	2dd\	.
=65	=65	=65	=65	=65	=65	=65
2A/	2A\	1r	2e\	2a/	2cc#\	2r
2g\	2r	.	2g\	4r	4r	4r
.	.	.	.	4b-\	4dd\	4g/
=66	=66	=66	=66	=66	=66	=66
4f#\	1r	1r	4f#\	4a/	4dd\	4a/
4g\	.	.	4g\	4b-\	4dd\	4dd\
2e-\	.	.	2e-\	2g/	2gg\	2cc\
=67	=67	=67	=67	=67	=67	=67
2d\	1r	2r	2d\	2a/	2ff#\	2dd\
4r	.	4r	2r	4r	4r	4r
4g\	.	4g\	.	4b-\	4gg\	4dd\
=68	=68	=68	=68	=68	=68	=68
4c\	1r	4c\	1r	4g/	4ee\	4cc\
4c\	.	4c\	.	4g/	4ee\	4cc\
[2f\	.	[2f\	.	2b-\	[2ff\	2dd\
=69	=69	=69	=69	=69	=69	=69
2f\]	1r	2f\]	1r	2a/	2ff\]	2cc\
2B-\	.	2B-\	.	[2b-\	2dd\	[2ff\
=70	=70	=70	=70	=70	=70	=70
1f	1r	1f	1r	2b-\]	1cc	4ff\]
.	.	.	.	.	.	8ee\L
.	.	.	.	.	.	8dd\J
.	.	.	.	2a/	.	2cc\
=71	=71	=71	=71	=71	=71	=71
2B-\	1r	2B-\	1r	4b-\	4b-\	4dd\
.	.	.	.	4b-\	4dd\	4ff\
4a\	.	2r	.	4a/	4cc\	4ff\
4b-\	.	.	.	4b-\	4dd\	4ff\
=72	=72	=72	=72	=72	=72	=72
4g\	2r	1r	2r	4g/	4dd\	4ee\
4a\	.	.	.	4a/	4cc\	4ee\
4d\	4r	.	4r	2d/	4a/	4dd\
*clefF4	*	.	*	.	*	*
4B-\	4B-\	.	4f\	.	4b-\	4dd\
=73	=73	=73	=73	=73	=73	=73
4A\	4A\	1r	4f\	4r	4cc\	8cc\
.	.	.	.	.	.	8a/
4B-\	4B-\	.	4f\	4d/	2b-\	2dd\
4G\	4G\	.	4e\	4g/	.	.
4A\	4A\	.	4e\	4e/	[4a/	4cc#\
=74	=74	=74	=74	=74	=74	=74
4D\	4D\	4r	4d\	8f/L	4a/]	2dd\
.	.	.	.	8g/J	.	.
4D\	4D\	4f\	4d\	2a/	4a/	.
4A\	4A\	4f\	8c\	.	2r	2r
.	.	.	8A/	.	.	.
4D\	4D\	4f\	[4d\	4a/	.	.
=75	=75	=75	=75	=75	=75	=75
2A\	2A\	4e\	4d\]	1a	2r	2r
.	.	4e\	4c#\	.	.	.
4D\	4D\	2d\	4d\	.	4r	4r
4d\	4d\	.	4d\	.	4ff\	4a/
=76	=76	=76	=76	=76	=76	=76
4c\	4c\	1r	4A/	1r	4ee\	4a/
4d\	4d\	.	4d\	.	4ff\	4a/
4B-\	4B-\	.	4d\	.	4dd\	4g/
4c\	4c\	.	4c\	.	4ee\	4g/
=77	=77	=77	=77	=77	=77	=77
2F\	2F\	2A/	[1c	4r	4cc\	4f/
.	.	.	.	4f/	4cc\	4a/
4A\	2r	4A/	.	8e/	4cc\	4a/
.	.	.	.	8c/	.	.
4F\	.	4F/	.	[4f/	4a/	4cc\
=78	=78	=78	=78	=78	=78	=78
2c\	2r	2c\	2c\]	4f/]	2g/	2cc\
.	.	.	.	4e/	.	.
2F\	2F\	4c\	2A/	4f/	4a/	4cc\
.	.	4F/	.	4a/	4cc\	4ff\
=79	=79	=79	=79	=79	=79	=79
2D\	2D\	2F/	2A/	4f/	2dd\	2ff\
.	.	.	.	4d/	.	.
2GG/	2GG/	2G/	2d\	[2g/	2b-\	2dd\
=80	=80	=80	=80	=80	=80	=80
1D	1D	1A	1d	2g/]	1a	1dd
.	.	.	.	2f#/	.	.
=81	=81	=81	=81	=81	=81	=81
1GG;	1GG;	1d;	1G;	1g;	1bn;	1dd;
==	==	==	==	==	==	==
*-	*-	*-	*-	*-	*-	*-
!!!ENC: Craig Stuart Sapp
!!!END: 2004/12/10/
